X: 31
T:Old Woman Tossed Up in a Blanket - Field Town
S:OY(AB3C)4
N:Tune as played for Grand Union Morris
N:www.grandunionmorris.co.uk
M:6/8
L:1/8
Q:75
K:G
"A"D | G2 G GBd | efg dBG | AGA BAB |E2 F G2 :||
"B"B | d2 d Bcd | efg dBG | dcd Bcd | efg d3 | d2 c Bcd | efg dBG | AGA
 BAB | E2 F G2 ||
"C" M:4/4   D | G2 G2 | GB d2 | ef g2 | dB G2 |
M:6/8  AGA BAB | E2 F G2 ||

